assets/svg/icon_pc.svg

<?xml version="1.0" encoding="utf-8"?> <!-- Generated by Layerhero SVG Exporter: http://www.layerhero.com/photoshop-svg-exporter --><!DOCTYPE svg PUBLIC "-//W3C//DTD SVG 1.1//EN" "http://www.w3.org/Graphics/SVG/1.1/DTD/svg11.dtd"><svg version="1.1" baseProfile="full" xmlns="http://www.w3.org/2000/svg" xmlns:xlink="http://www.w3.org/1999/xlink" xmlns:ev="http://www.w3.org/2001/xml-events" width="36" height="33" viewBox="0 0 36 33"><g transform="scale(NaN)" ><path fill-rule="evenodd"  fill="rgb( 187, 181, 187 )" d="M32.994,27.959 C32.994,27.959 22.625,27.959 22.625,27.959 C22.625,27.959 23.927,31.973 23.927,31.973 C23.939,31.994 23.936,32.021 23.947,32.043 C23.947,32.043 28.289,32.043 28.289,32.043 C28.702,32.043 29.251,31.833 29.251,32.247 C29.251,32.660 28.915,32.996 28.502,32.996 C28.502,32.996 23.278,32.996 23.278,32.996 C23.277,32.996 23.277,32.996 23.276,32.996 C23.271,32.996 23.266,32.996 23.261,32.996 C23.261,32.996 12.779,32.996 12.779,32.996 C12.779,32.996 12.778,32.996 12.777,32.996 C12.777,32.996 7.538,32.996 7.538,32.996 C7.125,32.996 6.789,32.660 6.789,32.247 C6.789,31.833 7.338,32.043 7.752,32.043 C7.752,32.043 12.086,32.043 12.086,32.043 C12.086,32.043 13.415,27.959 13.415,27.959 C13.415,27.959 3.006,27.959 3.006,27.959 C1.354,27.959 0.011,26.615 0.011,24.963 C0.011,24.963 0.011,2.987 0.011,2.987 C0.011,1.335 1.354,-0.008 3.006,-0.008 C3.006,-0.008 32.994,-0.008 32.994,-0.008 C34.646,-0.008 35.989,1.335 35.989,2.987 C35.989,2.987 35.989,24.963 35.989,24.963 C35.989,26.615 34.646,27.959 32.994,27.959 ZM22.000,32.000 C22.000,32.000 21.000,28.000 21.000,28.000 C21.000,28.000 15.000,28.000 15.000,28.000 C15.000,28.000 14.000,32.000 14.000,32.000 C14.000,32.000 22.000,32.000 22.000,32.000 ZM35.000,3.000 C35.000,2.174 33.826,1.000 33.000,1.000 C33.000,1.000 3.000,1.000 3.000,1.000 C2.174,1.000 1.000,2.174 1.000,3.000 C1.000,3.000 1.000,25.000 1.000,25.000 C1.000,25.826 2.174,27.000 3.000,27.000 C3.000,27.000 33.000,27.000 33.000,27.000 C33.826,27.000 35.000,25.826 35.000,25.000 C35.000,25.000 35.000,3.000 35.000,3.000 ZM2.938,2.985 C2.938,2.985 33.004,2.985 33.004,2.985 C33.004,2.985 33.004,21.025 33.004,21.025 C33.004,21.025 2.938,21.025 2.938,21.025 C2.938,21.025 2.938,2.985 2.938,2.985 ZM3.982,19.993 C3.982,19.993 31.978,19.993 31.978,19.993 C31.978,19.993 31.978,4.002 31.978,4.002 C31.978,4.002 3.982,4.002 3.982,4.002 C3.982,4.002 3.982,19.993 3.982,19.993 ZM17.945,22.400 C18.772,22.400 19.442,23.070 19.442,23.898 C19.442,24.725 18.772,25.395 17.945,25.395 C17.118,25.395 16.447,24.725 16.447,23.898 C16.447,23.070 17.118,22.400 17.945,22.400 Z"/><path fill-rule="evenodd"  fill="rgb( 187, 181, 187 )" d="M16.646,16.631 C15.980,16.169 15.273,15.759 14.254,15.759 C13.636,15.759 12.901,15.912 11.991,16.294 C11.991,16.294 13.195,11.946 13.195,11.946 C13.333,11.888 13.466,11.835 13.596,11.786 C14.035,11.625 14.661,11.442 15.347,11.383 C15.426,11.376 15.503,11.373 15.581,11.373 C16.266,11.373 16.891,11.622 17.339,11.862 C17.531,11.969 17.713,12.086 17.893,12.203 C17.734,12.772 16.893,15.758 16.646,16.631 M16.646,16.631 C15.980,16.169 15.273,15.759 14.254,15.759 C13.636,15.759 12.901,15.912 11.991,16.294 C11.991,16.294 13.195,11.946 13.195,11.946 C13.333,11.888 13.466,11.835 13.596,11.786 C14.035,11.625 14.661,11.442 15.347,11.383 C15.426,11.376 15.503,11.373 15.581,11.373 C16.266,11.373 16.891,11.622 17.339,11.862 C17.531,11.969 17.713,12.086 17.893,12.203 C17.734,12.772 16.893,15.758 16.646,16.631 M19.870,17.994 C18.816,17.994 17.410,17.092 17.412,17.094 C17.412,17.094 18.613,12.753 18.613,12.753 C18.978,13.057 19.825,13.634 21.216,13.634 C21.856,13.634 22.612,13.511 23.490,13.183 C23.490,13.183 22.333,17.395 22.333,17.395 C21.335,17.824 20.537,17.994 19.870,17.994 M19.870,17.994 C18.816,17.994 17.410,17.092 17.412,17.094 C17.412,17.094 18.613,12.753 18.613,12.753 C18.978,13.057 19.825,13.634 21.216,13.634 C21.856,13.634 22.612,13.511 23.490,13.183 C23.490,13.183 22.333,17.395 22.333,17.395 C21.335,17.824 20.537,17.994 19.870,17.994 M19.344,6.818 C19.344,6.818 19.344,6.821 19.344,6.821 C19.097,7.703 18.365,10.317 18.118,11.187 M18.118,11.187 C17.474,10.742 16.782,10.336 15.806,10.326 C15.795,10.326 15.785,10.326 15.773,10.326 C15.144,10.326 14.395,10.499 13.471,10.892 C13.471,10.892 14.657,6.554 14.657,6.554 C15.556,6.172 16.288,6.018 16.898,6.006 C16.902,6.006 16.907,6.006 16.912,6.006 C17.270,6.006 17.594,6.050 17.881,6.121 C18.481,6.280 19.344,6.818 19.344,6.818 M19.344,6.818 C19.344,6.818 19.344,6.821 19.344,6.821 C19.097,7.703 18.365,10.317 18.118,11.187 M18.118,11.187 C17.474,10.742 16.782,10.336 15.806,10.326 C15.795,10.326 15.785,10.326 15.773,10.326 C15.144,10.326 14.395,10.499 13.471,10.892 C13.471,10.892 14.657,6.554 14.657,6.554 C15.556,6.172 16.288,6.018 16.898,6.006 C16.902,6.006 16.907,6.006 16.912,6.006 C17.270,6.006 17.594,6.050 17.881,6.121 C18.481,6.280 19.344,6.818 19.344,6.818 M21.488,12.617 C20.439,12.617 19.568,12.241 18.899,11.775 C18.895,11.772 18.890,11.769 18.887,11.765 C18.887,11.765 20.103,7.381 20.103,7.381 C20.488,7.693 21.358,8.277 22.677,8.277 C23.341,8.277 24.117,8.129 25.003,7.727 C25.003,7.727 23.803,12.031 23.803,12.031 C23.800,12.032 23.797,12.034 23.795,12.034 C23.795,12.035 23.795,12.038 23.795,12.039 C22.953,12.453 22.182,12.617 21.488,12.617 M21.488,12.617 C20.439,12.617 19.568,12.241 18.899,11.775 C18.895,11.772 18.890,11.769 18.887,11.765 C18.887,11.765 20.103,7.381 20.103,7.381 C20.488,7.693 21.358,8.277 22.677,8.277 C23.341,8.277 24.117,8.129 25.003,7.727 C25.003,7.727 23.803,12.031 23.803,12.031 C23.800,12.032 23.797,12.034 23.795,12.034 C23.795,12.035 23.795,12.038 23.795,12.039 C22.953,12.453 22.182,12.617 21.488,12.617 "/></g></svg>

<?xml version="1.0" encoding="utf-8"?>
<!-- Generator: Adobe Illustrator 17.1.0, SVG Export Plug-In . SVG Version: 6.00 Build 0)  -->
<svg version="1.2" baseProfile="tiny" id="Layer_1" xmlns:ev="http://www.w3.org/2001/xml-events"
	 xmlns="http://www.w3.org/2000/svg" xmlns:xlink="http://www.w3.org/1999/xlink" x="0px" y="0px" viewBox="0 0 36 33"
	 xml:space="preserve">
<g transform="scale(NaN)">
	<path fill="#BBB5BB" d="M33,28H22.6l1.3,4c0,0,0,0,0,0.1h4.3c0.4,0,1-0.2,1,0.2c0,0.4-0.3,0.7-0.7,0.7h-5.2c0,0,0,0,0,0
		c0,0,0,0,0,0H12.8c0,0,0,0,0,0H7.5c-0.4,0-0.7-0.3-0.7-0.7c0-0.4,0.5-0.2,1-0.2h4.3l1.3-4.1H3c-1.7,0-3-1.3-3-3V3c0-1.7,1.3-3,3-3
		h30c1.7,0,3,1.3,3,3v22C36,26.6,34.6,28,33,28z M22,32l-1-4h-6l-1,4H22z M35,3c0-0.8-1.2-2-2-2H3C2.2,1,1,2.2,1,3v22
		c0,0.8,1.2,2,2,2h30c0.8,0,2-1.2,2-2V3z M2.9,3H33v18H2.9V3z M4,20h28V4H4V20z M17.9,22.4c0.8,0,1.5,0.7,1.5,1.5
		c0,0.8-0.7,1.5-1.5,1.5s-1.5-0.7-1.5-1.5C16.4,23.1,17.1,22.4,17.9,22.4z"/>
	<path fill="#BBB5BB" d="M16.6,16.6c-0.7-0.5-1.4-0.9-2.4-0.9c-0.6,0-1.4,0.2-2.3,0.5l1.2-4.3c0.1-0.1,0.3-0.1,0.4-0.2
		c0.4-0.2,1.1-0.3,1.8-0.4c0.1,0,0.2,0,0.2,0c0.7,0,1.3,0.2,1.8,0.5c0.2,0.1,0.4,0.2,0.6,0.3C17.7,12.8,16.9,15.8,16.6,16.6
		 M16.6,16.6c-0.7-0.5-1.4-0.9-2.4-0.9c-0.6,0-1.4,0.2-2.3,0.5l1.2-4.3c0.1-0.1,0.3-0.1,0.4-0.2c0.4-0.2,1.1-0.3,1.8-0.4
		c0.1,0,0.2,0,0.2,0c0.7,0,1.3,0.2,1.8,0.5c0.2,0.1,0.4,0.2,0.6,0.3C17.7,12.8,16.9,15.8,16.6,16.6 M19.9,18c-1.1,0-2.5-0.9-2.5-0.9
		l1.2-4.3c0.4,0.3,1.2,0.9,2.6,0.9c0.6,0,1.4-0.1,2.3-0.5l-1.2,4.2C21.3,17.8,20.5,18,19.9,18 M19.9,18c-1.1,0-2.5-0.9-2.5-0.9
		l1.2-4.3c0.4,0.3,1.2,0.9,2.6,0.9c0.6,0,1.4-0.1,2.3-0.5l-1.2,4.2C21.3,17.8,20.5,18,19.9,18 M19.3,6.8L19.3,6.8
		c-0.2,0.9-1,3.5-1.2,4.4 M18.1,11.2c-0.6-0.4-1.3-0.9-2.3-0.9c0,0,0,0,0,0c-0.6,0-1.4,0.2-2.3,0.6l1.2-4.3C15.6,6.2,16.3,6,16.9,6
		c0,0,0,0,0,0c0.4,0,0.7,0,1,0.1c0.6,0.2,1.5,0.7,1.5,0.7 M19.3,6.8L19.3,6.8c-0.2,0.9-1,3.5-1.2,4.4 M18.1,11.2
		c-0.6-0.4-1.3-0.9-2.3-0.9c0,0,0,0,0,0c-0.6,0-1.4,0.2-2.3,0.6l1.2-4.3C15.6,6.2,16.3,6,16.9,6c0,0,0,0,0,0c0.4,0,0.7,0,1,0.1
		c0.6,0.2,1.5,0.7,1.5,0.7 M21.5,12.6c-1,0-1.9-0.4-2.6-0.8c0,0,0,0,0,0l1.2-4.4c0.4,0.3,1.3,0.9,2.6,0.9c0.7,0,1.4-0.1,2.3-0.6
		L23.8,12c0,0,0,0,0,0c0,0,0,0,0,0C23,12.5,22.2,12.6,21.5,12.6 M21.5,12.6c-1,0-1.9-0.4-2.6-0.8c0,0,0,0,0,0l1.2-4.4
		c0.4,0.3,1.3,0.9,2.6,0.9c0.7,0,1.4-0.1,2.3-0.6L23.8,12c0,0,0,0,0,0c0,0,0,0,0,0C23,12.5,22.2,12.6,21.5,12.6"/>
</g>
</svg>
